src/images/Birthday.svg

<svg width="1300" height="1300" viewBox="0 0 1300 1300" fill="none" xmlns="http://www.w3.org/2000/svg">
<rect x="170" y="445" width="960" height="653" rx="173" fill="url(#paint0_linear)"/>
<path d="M381.825 139.948C375.225 142.548 370.025 147.048 355.925 162.348C324.825 196.148 305.925 224.948 300.125 247.448C297.525 257.348 297.325 274.148 299.625 285.148C307.025 321.148 332.825 348.748 368.725 359.148C375.625 361.148 378.825 361.448 393.625 361.448C407.125 361.448 412.025 361.048 417.625 359.548C451.725 350.348 476.425 326.348 486.725 292.448C489.225 284.348 489.525 281.848 489.525 267.948C489.625 254.348 489.325 251.548 487.325 244.948C480.025 221.748 461.325 193.848 431.325 161.548C418.125 147.348 411.225 141.548 405.225 139.448C399.025 137.348 387.825 137.548 381.825 139.948ZM401.825 226.648C411.525 238.748 417.825 248.148 421.925 256.748C425.025 263.248 425.325 264.648 424.825 269.848C423.025 290.048 400.425 303.148 381.925 294.748C371.525 289.948 365.525 282.448 363.125 271.248C362.125 266.748 362.225 265.548 364.425 260.248C365.725 256.948 369.325 250.448 372.225 245.848C378.225 236.548 392.725 217.948 393.925 217.948C394.425 217.948 397.925 221.848 401.825 226.648Z" fill="#374649"/>
<path d="M637.825 139.948C631.225 142.548 626.025 147.048 611.925 162.348C580.825 196.148 561.925 224.948 556.125 247.448C553.525 257.348 553.325 274.148 555.625 285.148C563.025 321.148 588.825 348.748 624.725 359.148C631.625 361.148 634.825 361.448 649.625 361.448C663.125 361.448 668.025 361.048 673.625 359.548C707.725 350.348 732.425 326.348 742.725 292.448C745.225 284.348 745.525 281.848 745.525 267.948C745.625 254.348 745.325 251.548 743.325 244.948C736.025 221.748 717.325 193.848 687.325 161.548C674.125 147.348 667.225 141.548 661.225 139.448C655.025 137.348 643.825 137.548 637.825 139.948ZM657.825 226.648C667.525 238.748 673.825 248.148 677.925 256.748C681.025 263.248 681.325 264.648 680.825 269.848C679.025 290.048 656.425 303.148 637.925 294.748C627.525 289.948 621.525 282.448 619.125 271.248C618.125 266.748 618.225 265.548 620.425 260.248C621.725 256.948 625.325 250.448 628.225 245.848C634.225 236.548 648.725 217.948 649.925 217.948C650.425 217.948 653.925 221.848 657.825 226.648Z" fill="#374649"/>
<path d="M893.825 139.948C887.225 142.548 882.025 147.048 867.925 162.348C836.825 196.148 817.925 224.948 812.125 247.448C809.525 257.348 809.325 274.148 811.625 285.148C819.025 321.148 844.825 348.748 880.725 359.148C887.625 361.148 890.825 361.448 905.625 361.448C919.125 361.448 924.025 361.048 929.625 359.548C963.725 350.348 988.425 326.348 998.725 292.448C1001.23 284.348 1001.53 281.848 1001.53 267.948C1001.63 254.348 1001.33 251.548 999.325 244.948C992.025 221.748 973.325 193.848 943.325 161.548C930.125 147.348 923.225 141.548 917.225 139.448C911.025 137.348 899.825 137.548 893.825 139.948ZM913.825 226.648C923.525 238.748 929.825 248.148 933.925 256.748C937.025 263.248 937.325 264.648 936.825 269.848C935.025 290.048 912.425 303.148 893.925 294.748C883.525 289.948 877.525 282.448 875.125 271.248C874.125 266.748 874.225 265.548 876.425 260.248C877.725 256.948 881.325 250.448 884.225 245.848C890.225 236.548 904.725 217.948 905.925 217.948C906.425 217.948 909.925 221.848 913.825 226.648Z" fill="#374649"/>
<path d="M382.025 427.848C376.025 430.148 371.025 434.048 367.625 438.948C362.125 446.848 362.025 448.348 362.125 486.548L362.225 521.748L336.925 522.248C314.525 522.548 310.825 522.848 304.225 524.848C268.525 535.448 243.025 562.948 235.625 598.648C234.225 605.148 234.125 626.948 234.125 778.048C234.125 927.748 234.325 951.048 235.625 957.448C243.025 993.148 268.925 1020.75 304.725 1031.15L312.625 1033.45H649.625C977.125 1033.45 986.825 1033.35 993.625 1031.55C1027.73 1022.35 1052.12 998.648 1062.83 964.448L1065.62 955.448V777.948V600.448L1062.83 591.448C1052.23 557.348 1028.03 533.848 994.125 524.448C988.925 523.048 982.625 522.548 962.925 522.248L938.125 521.748V486.948C938.125 445.248 938.025 444.748 928.625 435.348C921.525 428.248 916.125 425.948 905.925 425.948C894.825 425.948 885.425 430.548 879.625 438.948C874.125 446.848 874.025 448.348 874.125 486.648L874.225 521.948H778.125H682.125V487.048C682.125 445.248 682.025 444.848 672.625 435.348C665.525 428.248 660.125 425.948 649.925 425.948C638.825 425.948 629.425 430.548 623.625 438.948C618.125 446.848 618.025 448.348 618.125 486.648L618.225 521.948H522.125H426.125V487.048C426.125 445.248 426.025 444.848 416.625 435.348C412.425 431.048 409.125 428.748 405.725 427.648C399.125 425.448 388.025 425.548 382.025 427.848ZM983.325 589.748C990.125 593.048 995.125 597.948 998.525 604.648C1001.73 610.948 1002.33 622.648 1001.92 665.748C1001.42 712.548 1001.03 715.748 994.125 730.648C989.325 740.948 985.325 746.748 977.925 754.148C962.625 769.448 943.425 777.248 921.625 777.148C908.625 777.148 898.725 774.848 887.925 769.348C874.525 762.748 864.225 753.348 854.225 738.748C846.025 726.848 838.325 722.548 825.025 722.748C813.125 722.848 805.025 727.748 796.925 739.748C784.325 758.548 767.925 770.348 747.625 775.448C737.825 777.948 721.125 777.748 710.925 775.048C702.225 772.748 690.925 767.448 684.125 762.448C677.625 757.648 668.325 747.648 662.225 738.748C654.025 726.848 646.325 722.548 633.025 722.748C621.125 722.848 613.025 727.748 604.925 739.748C598.425 749.448 591.325 756.948 583.625 762.448C552.125 784.848 512.325 781.948 483.125 755.148C474.425 747.248 469.325 744.748 460.525 744.148C449.325 743.448 444.125 745.548 432.425 755.548C414.525 770.848 398.725 777.148 378.125 777.148C342.125 777.148 312.325 754.648 301.525 719.448L298.725 710.448L298.325 663.748C297.925 612.948 298.225 609.448 303.525 601.148C307.825 594.248 316.225 588.648 324.425 586.948C326.725 586.548 474.425 586.248 652.625 586.348L976.625 586.448L983.325 589.748ZM640.925 811.348C653.825 821.648 666.625 828.648 682.725 834.248C700.725 840.548 707.125 841.448 731.125 841.348C751.825 841.348 753.025 841.148 764.125 838.248C785.325 832.648 800.825 825.248 817.225 812.748L826.225 805.948L832.925 811.248C850.025 824.948 870.625 834.648 893.125 839.548C905.325 842.248 938.925 842.248 951.125 839.548C966.725 836.148 985.725 828.648 997.325 821.348C999.425 820.048 1001.33 818.948 1001.62 818.948C1002.62 818.948 1002.12 935.348 1001.03 941.848C999.225 953.348 993.525 961.148 983.325 966.148L976.625 969.448H650.125H323.625L318.125 966.848C307.825 961.948 302.325 955.548 299.625 945.248C298.425 940.448 298.125 929.348 298.125 879.248C298.125 846.048 298.425 818.948 298.725 818.948C299.025 818.948 300.525 819.748 301.925 820.848C311.325 827.448 332.925 836.048 349.125 839.548C361.225 842.248 394.925 842.248 407.125 839.548C423.225 836.048 438.825 829.748 454.825 820.348C457.925 818.548 458.025 818.548 461.825 820.748C469.125 825.248 485.725 832.848 493.225 835.248C509.525 840.548 516.125 841.448 539.125 841.348C559.725 841.248 561.125 841.148 572.125 838.248C593.325 832.648 609.125 825.048 624.925 812.848C629.725 809.148 633.725 806.048 633.925 806.048C634.125 805.948 637.225 808.348 640.925 811.348Z" fill="#374649"/>
<path d="M189.425 1100.05C183.425 1102.35 176.225 1108.85 173.225 1114.75C168.925 1123.25 168.925 1136.65 173.225 1145.15C176.325 1151.15 183.425 1157.55 189.725 1159.85L195.225 1161.95H650.025C1072.33 1161.95 1105.12 1161.85 1109.73 1160.25C1116.83 1157.85 1126.12 1148.25 1128.42 1141.05C1130.62 1134.25 1130.62 1125.65 1128.42 1118.85C1126.12 1111.65 1116.83 1102.05 1109.73 1099.65C1105.12 1098.05 1072.42 1097.95 649.725 1098.05C196.625 1098.05 194.625 1098.05 189.425 1100.05Z" fill="#374649"/>
<defs>
<linearGradient id="paint0_linear" x1="684.77" y1="485.5" x2="1238.32" y2="1197.26" gradientUnits="userSpaceOnUse">
<stop stop-color="#FAFAED"/>
<stop offset="1" stop-color="white" stop-opacity="0"/>
</linearGradient>
</defs>
</svg>

<svg fill="none" height="1300" viewBox="0 0 1300 1300" width="1300" xmlns="http://www.w3.org/2000/svg" xmlns:xlink="http://www.w3.org/1999/xlink"><linearGradient id="a" gradientUnits="userSpaceOnUse" x1="684.77" x2="1238.32" y1="485.5" y2="1197.26"><stop offset="0" stop-color="#fafaed"/><stop offset="1" stop-color="#fff" stop-opacity="0"/></linearGradient><rect fill="url(#a)" height="653" rx="173" width="960" x="170" y="445"/><g fill="#374649"><path d="m381.825 139.948c-6.6 2.6-11.8 7.1-25.9 22.4-31.1 33.8-50 62.6-55.8 85.1-2.6 9.9-2.8 26.7-.5 37.7 7.4 36 33.2 63.6 69.1 74 6.9 2 10.1 2.3 24.9 2.3 13.5 0 18.4-.4 24-1.9 34.1-9.2 58.8-33.2 69.1-67.1 2.5-8.1 2.8-10.6 2.8-24.5.1-13.6-.2-16.4-2.2-23-7.3-23.2-26-51.1-56-83.4-13.2-14.2-20.1-20-26.1-22.1-6.2-2.1-17.4-1.9-23.4.5zm20 86.7c9.7 12.1 16 21.5 20.1 30.1 3.1 6.5 3.4 7.9 2.9 13.1-1.8 20.2-24.4 33.3-42.9 24.9-10.4-4.8-16.4-12.3-18.8-23.5-1-4.5-.9-5.7 1.3-11 1.3-3.3 4.9-9.8 7.8-14.4 6-9.3 20.5-27.9 21.7-27.9.5 0 4 3.9 7.9 8.7z"/><path d="m637.825 139.948c-6.6 2.6-11.8 7.1-25.9 22.4-31.1 33.8-50 62.6-55.8 85.1-2.6 9.9-2.8 26.7-.5 37.7 7.4 36 33.2 63.6 69.1 74 6.9 2 10.1 2.3 24.9 2.3 13.5 0 18.4-.4 24-1.9 34.1-9.2 58.8-33.2 69.1-67.1 2.5-8.1 2.8-10.6 2.8-24.5.1-13.6-.2-16.4-2.2-23-7.3-23.2-26-51.1-56-83.4-13.2-14.2-20.1-20-26.1-22.1-6.2-2.1-17.4-1.9-23.4.5zm20 86.7c9.7 12.1 16 21.5 20.1 30.1 3.1 6.5 3.4 7.9 2.9 13.1-1.8 20.2-24.4 33.3-42.9 24.9-10.4-4.8-16.4-12.3-18.8-23.5-1-4.5-.9-5.7 1.3-11 1.3-3.3 4.9-9.8 7.8-14.4 6-9.3 20.5-27.9 21.7-27.9.5 0 4 3.9 7.9 8.7z"/><path d="m893.825 139.948c-6.6 2.6-11.8 7.1-25.9 22.4-31.1 33.8-50 62.6-55.8 85.1-2.6 9.9-2.8 26.7-.5 37.7 7.4 36 33.2 63.6 69.1 74 6.9 2 10.1 2.3 24.9 2.3 13.5 0 18.4-.4 24-1.9 34.1-9.2 58.8-33.2 69.1-67.1 2.505-8.1 2.805-10.6 2.805-24.5.1-13.6-.2-16.4-2.205-23-7.3-23.2-26-51.1-56-83.4-13.2-14.2-20.1-20-26.1-22.1-6.2-2.1-17.4-1.9-23.4.5zm20 86.7c9.7 12.1 16 21.5 20.1 30.1 3.1 6.5 3.4 7.9 2.9 13.1-1.8 20.2-24.4 33.3-42.9 24.9-10.4-4.8-16.4-12.3-18.8-23.5-1-4.5-.9-5.7 1.3-11 1.3-3.3 4.9-9.8 7.8-14.4 6-9.3 20.5-27.9 21.7-27.9.5 0 4 3.9 7.9 8.7z"/><path d="m382.025 427.848c-6 2.3-11 6.2-14.4 11.1-5.5 7.9-5.6 9.4-5.5 47.6l.1 35.2-25.3.5c-22.4.3-26.1.6-32.7 2.6-35.7 10.6-61.2 38.1-68.6 73.8-1.4 6.5-1.5 28.3-1.5 179.4 0 149.7.2 173 1.5 179.4 7.4 35.7 33.3 63.302 69.1 73.702l7.9 2.3h337c327.5 0 337.2-.1 344-1.9 34.105-9.2 58.495-32.902 69.205-67.102l2.79-9v-177.5-177.5l-2.79-9c-10.6-34.1-34.8-57.6-68.705-67-5.2-1.4-11.5-1.9-31.2-2.2l-24.8-.5v-34.8c0-41.7-.1-42.2-9.5-51.6-7.1-7.1-12.5-9.4-22.7-9.4-11.1 0-20.5 4.6-26.3 13-5.5 7.9-5.6 9.4-5.5 47.7l.1 35.3h-96.1-96v-34.9c0-41.8-.1-42.2-9.5-51.7-7.1-7.1-12.5-9.4-22.7-9.4-11.1 0-20.5 4.6-26.3 13-5.5 7.9-5.6 9.4-5.5 47.7l.1 35.3h-96.1-96v-34.9c0-41.8-.1-42.2-9.5-51.7-4.2-4.3-7.5-6.6-10.9-7.7-6.6-2.2-17.7-2.1-23.7.2zm601.3 161.9c6.8 3.3 11.8 8.2 15.2 14.9 3.205 6.3 3.805 18 3.395 61.1-.5 46.8-.89 50-7.795 64.9-4.8 10.3-8.8 16.1-16.2 23.5-15.3 15.3-34.5 23.1-56.3 23-13 0-22.9-2.3-33.7-7.8-13.4-6.6-23.7-16-33.7-30.6-8.2-11.9-15.9-16.2-29.2-16-11.9.1-20 5-28.1 17-12.6 18.8-29 30.6-49.3 35.7-9.8 2.5-26.5 2.3-36.7-.4-8.7-2.3-20-7.6-26.8-12.6-6.5-4.8-15.8-14.8-21.9-23.7-8.2-11.9-15.9-16.2-29.2-16-11.9.1-20 5-28.1 17-6.5 9.7-13.6 17.2-21.3 22.7-31.5 22.4-71.3 19.5-100.5-7.3-8.7-7.9-13.8-10.4-22.6-11-11.2-.7-16.4 1.4-28.1 11.4-17.9 15.3-33.7 21.6-54.3 21.6-36 0-65.8-22.5-76.6-57.7l-2.8-9-.4-46.7c-.4-50.8-.1-54.3 5.2-62.6 4.3-6.9 12.7-12.5 20.9-14.2 2.3-.4 150-.7 328.2-.6l324 .1zm-342.4 221.6c12.9 10.3 25.7 17.3 41.8 22.9 18 6.3 24.4 7.2 48.4 7.1 20.7 0 21.9-.2 33-3.1 21.2-5.6 36.7-13 53.1-25.5l9-6.8 6.7 5.3c17.1 13.7 37.7 23.4 60.2 28.3 12.2 2.7 45.8 2.7 58 0 15.6-3.4 34.6-10.9 46.2-18.2 2.1-1.3 4.005-2.4 4.295-2.4 1 0 .5 116.4-.59 122.9-1.805 11.5-7.505 19.3-17.705 24.3l-6.7 3.3h-326.5-326.5l-5.5-2.6c-10.3-4.9-15.8-11.3-18.5-21.6-1.2-4.8-1.5-15.9-1.5-66 0-33.2.3-60.3.6-60.3s1.8.8 3.2 1.9c9.4 6.6 31 15.2 47.2 18.7 12.1 2.7 45.8 2.7 58 0 16.1-3.5 31.7-9.8 47.7-19.2 3.1-1.8 3.2-1.8 7 .4 7.3 4.5 23.9 12.1 31.4 14.5 16.3 5.3 22.9 6.2 45.9 6.1 20.6-.1 22-.2 33-3.1 21.2-5.6 37-13.2 52.8-25.4 4.8-3.7 8.8-6.8 9-6.8.2-.1 3.3 2.3 7 5.3z"/><path d="m189.425 1100.05c-6 2.3-13.2 8.8-16.2 14.7-4.3 8.5-4.3 21.9 0 30.4 3.1 6 10.2 12.4 16.5 14.7l5.5 2.1h454.8c422.305 0 455.095-.1 459.705-1.7 7.1-2.4 16.39-12 18.69-19.2 2.2-6.8 2.2-15.4 0-22.2-2.3-7.2-11.59-16.8-18.69-19.2-4.61-1.6-37.31-1.7-460.005-1.6-453.1 0-455.1 0-460.3 2z"/></g></svg>
